img/menu-icon.svg

<?xml version="1.0" ?><svg height="11px" version="1.1" viewBox="0 0 22 11" width="22px" xmlns="http://www.w3.org/2000/svg" xmlns:sketch="http://www.bohemiancoding.com/sketch/ns" xmlns:xlink="http://www.w3.org/1999/xlink"><title/><defs><path d="M0.577138391,0 C0.258393659,0 0,0.221932411 0,0.5 C0,0.776142375 0.262396485,1 0.577138391,1 L21.4228616,1 C21.7416064,1 22,0.77806759 22,0.5 C22,0.223857625 21.7376035,0 21.4228616,0 L0.577138391,0 L0.577138391,0 Z M0.577138391,5 C0.258393659,5 0,5.2219324 0,5.5 C0,5.77614235 0.262396485,6 0.577138391,6 L21.4228616,6 C21.7416064,6 22,5.7780676 22,5.5 C22,5.22385765 21.7376035,5 21.4228616,5 L0.577138391,5 L0.577138391,5 Z M0.577138391,10 C0.258393659,10 0,10.2219324 0,10.5 C0,10.7761424 0.262396485,11 0.577138391,11 L21.4228616,11 C21.7416064,11 22,10.7780676 22,10.5 C22,10.2238576 21.7376035,10 21.4228616,10 L0.577138391,10 L0.577138391,10 Z" id="path-1"/></defs><g fill="none" fill-rule="evenodd" id="miu" stroke="none" stroke-width="1"><g id="editor_list_view_hambuger_menu_outline_stroke"><use fill="#ffffff" fill-rule="evenodd" xlink:href="#path-1"/><use fill="none" xlink:href="#path-1"/></g></g></svg>

<svg height="11" viewBox="0 0 22 11" width="22" xmlns="http://www.w3.org/2000/svg" xmlns:xlink="http://www.w3.org/1999/xlink"><title/><defs><path d="M.577 0C.257 0 0 .222 0 .5c0 .276.262.5.577.5h20.846c.32 0 .577-.222.577-.5 0-.276-.262-.5-.577-.5H.577zm0 5C.257 5 0 5.222 0 5.5c0 .276.262.5.577.5h20.846c.32 0 .577-.222.577-.5 0-.276-.262-.5-.577-.5H.577zm0 5c-.32 0-.577.222-.577.5 0 .276.262.5.577.5h20.846c.32 0 .577-.222.577-.5 0-.276-.262-.5-.577-.5H.577z" id="a"/></defs><g fill="none" fill-rule="evenodd"><g><use fill="#000" xlink:href="#a"/><use xlink:href="#a"/></g></g></svg>
